_editor/libs/builder/icons/paypal.svg

<svg enable-background="new 0 0 47.1 49" height="49" viewBox="0 0 47.1 49" width="47.1" xmlns="http://www.w3.org/2000/svg"><path d="m42.6 10.6c-.5-6.8-5.9-10.6-15.4-10.6h-18l-9.2 42h6l-1.6 7h16.4l2.5-10h8.4c8.5 0 15.4-10.3 15.4-18.9 0-4.1-1.6-7.4-4.5-9.5zm-31.7-8.6h16.3c6.1 0 13.4 1.7 13.4 9.7 0 7.4-6 16.3-13.4 16.3h-10l-2.5 12h-12.2zm20.8 35h-9.9l-2.5 10h-12.4l1.2-5h8.4l2.5-12h8.3c8.1 0 14.6-8.7 15.3-16.8 1.6 1.7 2.5 4 2.5 6.8 0 7.7-6.2 17-13.4 17z"/></svg>

<?xml version="1.0" ?><!DOCTYPE svg  PUBLIC '-//W3C//DTD SVG 1.1//EN'  'http://www.w3.org/Graphics/SVG/1.1/DTD/svg11.dtd'><svg height="49px" id="Layer_1" style="enable-background:new 0 0 47.1 49;" version="1.1" viewBox="0 0 47.1 49" width="47.1px" xml:space="preserve" xmlns="http://www.w3.org/2000/svg" xmlns:xlink="http://www.w3.org/1999/xlink"><g><g><path d="M42.6,10.6C42.1,3.8,36.7,0,27.2,0h-18L0,42h6l-1.6,7h16.4l2.5-10h8.4c8.5,0,15.4-10.3,15.4-18.9    C47.1,16,45.5,12.7,42.6,10.6z M10.9,2h16.3c6.1,0,13.4,1.7,13.4,9.7c0,7.4-6,16.3-13.4,16.3h-10l-2.5,12H2.5L10.9,2z M31.7,37    h-9.9l-2.5,10H6.9l1.2-5h8.4l2.5-12h8.3c8.1,0,14.6-8.7,15.3-16.8c1.6,1.7,2.5,4,2.5,6.8C45.1,27.7,38.9,37,31.7,37z"/></g></g></svg>
